!!!!SEGMENT: pl-kk--kk-i-137--001_anonim--caro-mea-caro-mea.krn
!!!cenid: 16xx:751
!!!COM: Anonim
!!!COM-rismid: pe30004985
!!!CDT:
!!!CNT:
!!!OTL: Caro mea
!!!OMV: 001
!!!PDT:
!!!AGN: Sacred
!!!SMS-siglum: PL-Kk
!!!SMS-shelfmark: Kk.I.137
!!!SMS-shelfwork: 001-001 W
!!!SMS-variant:
!!!SMS-altvar:
!!!NIFC-rismid: 1001143560
!!!URL-scan: http://repozytorium.nifc.pl/skany/pl-kk-nut--i-137
!!!ONB-nifc: UWAGA: części Caro mea: 1. Caro mea (Largo), 2. Qui manducat, 3. Alleluja (Allegro)
**kern	**fba	**kern	**text	**kern	**text	**kern	**text
*part4	*	*part3	*part3	*part2	*part2	*part1	*part1
*staff4	*	*staff3	*staff3	*staff2	*staff2	*staff1	*staff1
*Iorgan	*	*Iempty	*	*Ivox	*	*Ivox	*
*I"[Organo]	*	*I"Baſso	*	*I"Canto 2do	*	*I"Canto pmo	*
*I'org	*	*I'B	*	*I'C 2	*	*I'C 1	*
*clefF4	*	*clefF4	*	*clefC1	*	*clefC1	*
*k[b-]	*	*k[b-]	*	*k[b-]	*	*k[b-]	*
*F:	*	*F:	*	*F:	*	*F:	*
*M4/4	*	*M4/4	*	*M4/4	*	*M4/4	*
*met(c)	*	*met(c)	*	*met(c)	*	*met(c)	*
=1	=1	=1	=1	=1	=1	=1	=1
*all\right	*	*all\right	*	*all\right	*	*all\right	*
*2\right	*	*	*	*	*	*	*
!LO:TX:a:t=C.	!	!LO:TX:b:t=3	!	!LO:TX:b:t=6	!	!	!
!LO:TX:a:t=Largo aſsai	!	!LO:TX:a:t=Largo\n Deuoto	!	!LO:TX:a:t=Largo\n Deuoto	!	!LO:TX:a:t=Largo\n Deuoto	!
[2F\	.	0r	.	00r	.	4cc\	Ca-
.	.	.	.	.	.	4f/	-ro
4F\]	2	.	.	.	.	8b-\L	me-
.	.	.	.	.	.	16cc\L	.
.	.	.	.	.	.	16dd\JJ	.
4E\	.	.	.	.	.	16cc\LL	.
.	.	.	.	.	.	16dd\	.
.	.	.	.	.	.	16g\	.
.	.	.	.	.	.	16b-\JJ	.
=2	=2	=2	=2	=2	=2	=2	=2
4F\	.	.	.	.	.	4a\	-a
4E\	.	.	.	.	.	8cc\	ue-
.	.	.	.	.	.	8cc\	-re
4D/	.	.	.	.	.	(8ff\L	ue-
.	.	.	.	.	.	8ee\J)	.
4BBn/	.	.	.	.	.	8dd\	-re
.	.	.	.	.	.	8gg\	est
!	!	!	!	!	!	!LO:LB:g=original	!
=3	=3	=3	=3	=3	=3	=3	=3
8c\L	.	1r	.	.	.	8ee\	ci-
8B-\	.	.	.	.	.	8cc\	-buſ
8A\	.	.	.	.	.	4.ff\	ue-
8F\J	.	.	.	.	.	.	.
4G\	7	.	.	.	.	.	.
.	.	.	.	.	.	8b#X\	-re
8E\L	6	.	.	.	.	16cc\LL	ue-
.	.	.	.	.	.	16b#X\JJ	.
8F\J	.	.	.	.	.	16cc\	-re
.	.	.	.	.	.	16dd\	est
=4	=4	=4	=4	=4	=4	=4	=4
4G\	4	2r	.	.	.	(4ee\	ci-
4GG/	3	.	.	.	.	4dd\)	.
4C/	.	8r	.	.	.	4cc\	-buſ
.	.	8G\	Et	.	.	.	.
8r	.	8c\	San-	.	.	4r	.
8C/	.	8B-\	-guiſ	.	.	.	.
!LO:LB:g=original	!	!	!	!	!	!	!
=5	=5	=5	=5	=5	=5	=5	=5
!	!	!	!	!	!	!LO:TX:b:t=6	!
4F\	.	8A\L	me-	0r	.	00r	.
.	.	16B-\L	.	.	.	.	.
.	.	16c\JJ	.	.	.	.	.
8r	.	8F\L	.	.	.	.	.
8F\	.	16G\L	.	.	.	.	.
.	.	16A\JJ	.	.	.	.	.
4B-\	.	8B-\L	.	.	.	.	.
.	.	16c\L	.	.	.	.	.
.	.	16d\JJ	.	.	.	.	.
8r	.	8G\L	.	.	.	.	.
8G\	.	16A\L	.	.	.	.	.
.	.	16B-\JJ	.	.	.	.	.
!	!	!LO:LB:g=original	!	!	!	!	!
=6	=6	=6	=6	=6	=6	=6	=6
8c\L	.	8c\	.	.	.	.	.
8B-\	.	8B-\	-uſ	.	.	.	.
8A\	.	8A\	ue-	.	.	.	.
8G\J	.	8G\	-re	.	.	.	.
4.F\	.	4F\	ue-	.	.	.	.
.	.	8BB-/	-re	.	.	.	.
8BB-/	.	8BB-/	est	.	.	.	.
=7	=7	=7	=7	=7	=7	=7	=7
2C/	4	2C/	po-	2r	.	.	.
.	3	.	.	.	.	.	.
[<2F\	.	4F\	-tuſ	4cc\	Ca-	.	.
.	.	4r	.	4f/	-ro	.	.
=8	=8	=8	=8	=8	=8	=8	=8
!	!	!LO:TX:b:t=6	!	!	!	!	!
4F\]	2	00r	.	8b-\L	me-	.	.
.	.	.	.	16cc\L	.	.	.
.	.	.	.	16dd\JJ	.	.	.
4E\	6	.	.	16cc\LL	.	.	.
.	.	.	.	16dd\	.	.	.
.	.	.	.	16g\	.	.	.
.	.	.	.	16b-\JJ	.	.	.
4F\	.	.	.	4a\	-a	.	.
4E\	6	.	.	8cc\	ue-	.	.
.	.	.	.	8cc\	-re	.	.
=9	=9	=9	=9	=9	=9	=9	=9
4D/	.	.	.	(8ff\L	ue-	0r	.
.	.	.	.	8ee\J)	.	.	.
4BB#X/	.	.	.	8dd\	-re	.	.
.	.	.	.	8gg\	est	.	.
!	!	!	!	!LO:LB:g=original	!	!	!
8c\L	.	.	.	8ee\	ci-	.	.
8B-\	.	.	.	8cc\	-buſ	.	.
8A\	.	.	.	[4ff\	ue-	.	.
8F\J	.	.	.	.	.	.	.
!LO:LB:g=original	!	!	!	!	!	!	!
=10	=10	=10	=10	=10	=10	=10	=10
4G\	7	.	.	8ff\]	.	.	.
.	.	.	.	8b#X\	-re	.	.
8E\L	.	.	.	16cc\LL	ue-	.	.
.	.	.	.	16b#\JJ	.	.	.
8F\J	.	.	.	16cc\	-re	.	.
.	.	.	.	16dd\	est	.	.
4G\	4	.	.	(4ee\	ci-	.	.
4GG/	3	.	.	4dd\)	.	.	.
=11	=11	=11	=11	=11	=11	=11	=11
4C/	.	.	.	4cc\	-buſ	8r	.
.	.	.	.	.	.	8g\	et
8r	.	.	.	4r	.	8cc\	san-
8C/	.	.	.	.	.	8b-\	-guiſ
!	!	!	!	!	!	!LO:LB:g=original	!
4F\	.	.	.	2r	.	8a\L	me-
.	.	.	.	.	.	16b-\L	.
.	.	.	.	.	.	16cc\JJ	.
8r	.	.	.	.	.	8f\L	.
8F\	.	.	.	.	.	16g\L	.
.	.	.	.	.	.	16a\JJ	.
=12	=12	=12	=12	=12	=12	=12	=12
!	!	!	!	!LO:TX:b:t=5	!	!	!
4G\	.	0r	.	00r	.	8b-\L	.
.	.	.	.	.	.	16cc\L	.
.	.	.	.	.	.	16dd\JJ	.
8r	.	.	.	.	.	8g\L	.
8G\	.	.	.	.	.	16a\L	.
.	.	.	.	.	.	16b-\JJ	.
4A\	.	.	.	.	.	8cc\	.
.	.	.	.	.	.	8cc\	-uſ
8r	.	.	.	.	.	[4cc\	ue-
8A\	.	.	.	.	.	.	.
=13	=13	=13	=13	=13	=13	=13	=13
*	*below	*	*	*	*	*	*
4B-\	9	.	.	.	.	4cc\]	.
8r	.	.	.	.	.	8b-\	-re
8B-\	8	.	.	.	.	8a\	est
4c\	4	.	.	.	.	(4a\	po-
4C/	3	.	.	.	.	4g\)	.
*	*above	*	*	*	*	*	*
!LO:LB:g=original	!	!	!	!	!	!LO:LB:g=original	!
=14	=14	=14	=14	=14	=14	=14	=14
[2F\	7	4c\	Ca-	.	.	4f/	-tuſ
.	.	4F\	-ro	.	.	4r	.
4F\]	2	8B-\L	me-	.	.	2r	.
.	.	16c\L	.	.	.	.	.
.	.	16d\JJ	.	.	.	.	.
4E\	6	16c\LL	.	.	.	.	.
.	.	16d\	.	.	.	.	.
.	.	16G\	.	.	.	.	.
.	.	16B-\JJ	.	.	.	.	.
!	!	!LO:LB:g=original	!	!	!	!	!
=15	=15	=15	=15	=15	=15	=15	=15
!	!	!	!	!	!	!LO:TX:b:t=7	!
4F\	.	4A\	-a	.	.	00r	.
4E\	.	8c\	ue-	.	.	.	.
.	.	8E\	-re	.	.	.	.
4D\	.	8F\L	ue-	.	.	.	.
.	.	8E\J	.	.	.	.	.
4BB#X/	.	8D\	-re	.	.	.	.
.	.	8G\	est	.	.	.	.
=16	=16	=16	=16	=16	=16	=16	=16
4.C/	.	8E\	ci-	1r	.	.	.
.	.	8C/	-buſ	.	.	.	.
.	.	4.c\	ue-	.	.	.	.
8D/	.	.	.	.	.	.	.
4E\	.	.	.	.	.	.	.
.	.	8E\	-re	.	.	.	.
4F\	.	16F\LL	ue-	.	.	.	.
.	.	16G\JJ	.	.	.	.	.
.	.	16A\	-re	.	.	.	.
.	.	16F\	est	.	.	.	.
=17	=17	=17	=17	=17	=17	=17	=17
*	*	*2\right	*	*	*	*	*
4G\	4	2G\	ci-	2r	.	.	.
4GG/	3	.	.	.	.	.	.
!	!	!	!	!LO:LB:g=original	!	!	!
4C/	.	4C/	-bus	8r	.	.	.
.	.	.	.	8g/	et	.	.
8r	.	4r	.	8cc\	san-	.	.
8E\	6	.	.	8b-\	-guiſ	.	.
!	!	!LO:LB:g=original	!	!	!	!	!
=18	=18	=18	=18	=18	=18	=18	=18
!	!	!LO:TX:b:t=2	!	!	!	!	!
4F\	.	0r	.	8a\L	me-	.	.
.	.	.	.	16b-\L	.	.	.
.	.	.	.	16cc\JJ	.	.	.
8r	.	.	.	8f/L	.	.	.
8F\	.	.	.	16g/L	.	.	.
.	.	.	.	16a/JJ	.	.	.
!LO:LB:g=original	!	!	!	!	!	!	!
4G\	.	.	.	8b-\L	.	.	.
.	.	.	.	16cc\L	.	.	.
.	.	.	.	16dd\JJ	.	.	.
8r	.	.	.	8g\L	.	.	.
8G\	.	.	.	16a\L	.	.	.
.	.	.	.	16b-\JJ	.	.	.
=19	=19	=19	=19	=19	=19	=19	=19
4A\	.	.	.	8cc\	.	0r	.
.	.	.	.	8cc\	-us	.	.
*	*	*	*	*2\right	*	*	*
8r	.	.	.	2cc\	ue-	.	.
8A\	.	.	.	.	.	.	.
*	*below	*	*	*	*	*	*
4B-\	9	.	.	.	.	.	.
8r	8	.	.	8b-\	-re	.	.
*	*above	*	*	*	*	*	*
8B-\	.	.	.	8a\	est	.	.
!	!	!	!	!LO:LB:g=original	!	!	!
=20	=20	=20	=20	=20	=20	=20	=20
4c\	4	8r	.	(4a\	po-	.	.
.	.	8G\	et	.	.	.	.
4C/	3	8c\	San-	4g\)	-tus	.	.
.	.	8B-\	-guiſ	.	.	.	.
4F\	.	8A\L	me-	4f\	.	.	.
.	.	16B-\L	.	.	.	.	.
.	.	16c\JJ	.	.	.	.	.
8r	.	8F\L	.	4r	.	.	.
8D/	.	16G\L	.	.	.	.	.
.	.	16A\JJ	.	.	.	.	.
=21	=21	=21	=21	=21	=21	=21	=21
4G\	.	8B-\L	.	4r	.	1r	.
.	.	16c\L	.	.	.	.	.
.	.	16d\JJ	.	.	.	.	.
8r	.	8G\L	.	2g/	ve-	.	.
8G\	.	16A\L	.	.	.	.	.
.	.	16B-\JJ	.	.	.	.	.
4A\	#	8A\	.	.	.	.	.
.	.	8A\	-uſ	.	.	.	.
4D/	.	4r	.	8f/	-re	.	.
.	.	.	.	8f/	est	.	.
=22	=22	=22	=22	=22	=22	=22	=22
!	!	!LO:TX:b:t=1	!	!	!	!	!
4A\	4	1r	.	2e/	po-	8r	.
.	.	.	.	.	.	8e/	et
4AA/	#3	.	.	.	.	8a\	San-
.	.	.	.	.	.	8g\	-guiſ
!LO:LB:g=original	!	!	!	!	!	!	!
4D/	#	.	.	8d/	-tuſ	8f#X/L	me-
.	.	.	.	8a\	et	16g/L	.
.	.	.	.	.	.	16a/JJ	.
8r	.	.	.	8dd\	San-	8d/L	.
8D/	.	.	.	8cc\	-guis	16e/L	.
.	.	.	.	.	.	16f#X/JJ	.
!	!	!	!	!LO:LB:g=original	!	!	!
=23	=23	=23	=23	=23	=23	=23	=23
4GG/	#	2r	.	8b#X\L	me-	8g/	.
.	.	.	.	16cc\L	.	16g/	-uſ
.	.	.	.	16dd\JJ	.	16dd\	et
8r	.	.	.	8g\L	.	8gg\	San-
8G\	.	.	.	16a\L	.	8ff\	-guiſ
.	.	.	.	16b#X\JJ	.	.	.
!	!	!LO:LB:g=original	!	!	!	!LO:LB:g=original	!
4C/	.	8r	.	8cc\	.	8ee\L	me-
.	.	8G\	et	8cc\	-us	16ff\L	.
.	.	.	.	.	.	16gg\JJ	.
8r	.	8c\	San-	4r	.	8cc\L	.
8C/	.	8B-\	-guiſ	.	.	16dd\L	.
.	.	.	.	.	.	16ee\JJ	.
=24	=24	=24	=24	=24	=24	=24	=24
4F\	.	8A\L	me-	4.cc\	ue-	8ff\	.
.	.	16B-\L	.	.	.	8ff\	-uſ
.	.	16c\JJ	.	.	.	.	.
8r	.	8F\L	.	.	.	[<4ff\	Ve-
8F\	.	16G\L	.	8dd\	-re	.	.
.	.	16A\JJ	.	.	.	.	.
4G\	.	8G\	.	8g\	ue-	4ff\]	.
.	.	8G\	-uſ	16a\	-re	.	.
.	.	.	.	16b#X\	est	.	.
4C/	.	4r	.	[4cc\	po-	8ee\	-re
.	.	.	.	.	.	8ee\	eſt
=25	=25	=25	=25	=25	=25	=25	=25
*	*	*	*	*	*	*2\right	*
4G\	4	2r	.	4cc\]	.	2dd\	po-
4GG/	#3	.	.	4b#X\	.	.	.
[2C/	.	4G\	ca-	4cc\	-tuſ	4cc\	-tuſ
.	.	4C/	-ro	4r	.	4r	.
!	!	!	!	!LO:LB:g=original	!	!	!
=26	=26	=26	=26	=26	=26	=26	=26
!	!	!	!	!LO:TX:b:t=2	!	!LO:TX:b:t=1	!
4C/]	2	8F\L	me-	0r	.	1r	.
.	.	16G\L	.	.	.	.	.
.	.	16A\JJ	.	.	.	.	.
4BB#X/	.	16G\LL	.	.	.	.	.
.	.	16A\	.	.	.	.	.
.	.	16D\	.	.	.	.	.
.	.	16F\JJ	.	.	.	.	.
!	!	!LO:LB:g=original	!	!	!	!	!
4C/	.	4E\	-a	.	.	.	.
*	*below	*	*	*	*	*	*
4B-\	6	8G\	ue-	.	.	.	.
*	*above	*	*	*	*	*	*
.	.	8G\	-re	.	.	.	.
!LO:LB:g=original	!	!	!	!	!	!	!
=27	=27	=27	=27	=27	=27	=27	=27
4A\	.	8c\L	ue-	.	.	2r	.
.	.	8B-\J	.	.	.	.	.
4F#X\	.	8A\	-re	.	.	.	.
.	.	8d\	est	.	.	.	.
!	!	!	!	!	!	!LO:LB:g=original	!
4G\	-	8B-\	ci-	.	.	8r	.
.	.	8B-\	-buſ	.	.	8dd\	et
8r	.	4r	.	.	.	8gg\	San-
8BB#X/	.	.	.	.	.	8ff\	-guiſ
=28	=28	=28	=28	=28	=28	=28	=28
4C/	.	2r	.	8r	.	8ee\L	me-
.	.	.	.	8g/	et	16ff\L	.
.	.	.	.	.	.	16gg\JJ	.
8r	.	.	.	8cc\	San-	8cc\L	.
8E\	.	.	.	8b-\	-guiſ	16dd\L	.
.	.	.	.	.	.	16ee\JJ	.
4F\	.	8r	.	8a\L	me-	8ff\	.
.	.	8C/	et	16b-\L	.	8ff\	-us
.	.	.	.	16cc\JJ	.	.	.
8r	.	8F\	San-	8f\L	.	4r	.
8F\	.	8E-X\	-guiſ	16g\L	.	.	.
.	.	.	.	16a\JJ	.	.	.
!	!	!LO:LB:g=original	!	!	!	!	!
=29	=29	=29	=29	=29	=29	=29	=29
!	!	!	!	!	!	!LO:TX:b:t=1	!
*	*below	*	*	*	*	*	*
4D/	-6	8D\L	me-	8b-\	.	1r	.
*	*above	*	*	*	*	*	*
.	.	16E\L	.	8b-\	-uſ	.	.
.	.	16F\JJ	.	.	.	.	.
8r	.	8BB-/L	.	8b-\	ue-	.	.
8BB-/	.	16C/L	.	8a\	-re	.	.
.	.	16D/JJ	.	.	.	.	.
4E-X\	.	8E-X\	.	8g/	ue-	.	.
.	.	8E-\	-uſ	8g/	-re	.	.
4C/	.	8C/	ue-	[4cc\	ue-	.	.
.	.	8C/	-re	.	.	.	.
=30	=30	=30	=30	=30	=30	=30	=30
4D\	7 #	4D\	ue-	4cc\]	.	2r	.
!LO:TX:t=P:problem:mixed beam	!	!	!	!	!	!	!
8G\L	.	8G\	-re	8b-\	-re	.	.
8C/J	.	8C/	est	8b-\	est	.	.
!LO:LB:g=original	!	!	!	!LO:LB:g=original	!	!	!
4D\	4	2D/	po-	2a\	po-	8r	.
.	.	.	.	.	.	8g\	et
4DD/	#3	.	.	.	.	8dd\	San-
.	.	.	.	.	.	8cc\	-guiſ
!	!	!	!	!	!	!LO:LB:g=original	!
=31	=31	=31	=31	=31	=31	=31	=31
4GG/	.	8G\	-tus	4g\	-tuſ	8bn\L	me-
.	.	8D/	et	.	.	16cc\L	.
.	.	.	.	.	.	16dd\JJ	.
8r	.	8G\	San-	4r	.	8g\L	.
8GG/	#	8F\	-guiſ	.	.	16a\L	.
.	.	.	.	.	.	16b#X\JJ	.
!	!	!LO:LB:g=original	!	!	!	!	!
4C/	.	8E\L	me-	2r	.	8cc\	.
.	.	16F\L	.	.	.	8cc\	-uſ
.	.	16G\JJ	.	.	.	.	.
8r	.	8C/L	.	.	.	8cc\	ue-
8C/	.	16D/L	.	.	.	8b#\	-re
.	.	16E/JJ	.	.	.	.	.
=32	=32	=32	=32	=32	=32	=32	=32
!	!	!	!	!LO:TX:b:t=1	!	!	!
8F\L	.	8F\	.	1r	.	8a\	ue-
8G\	.	8F\	-uſ	.	.	8a\	-re
8A\	.	8F\	ue-	.	.	2ff\	ue-
8F\J	.	8F\	-re	.	.	.	.
4G\	#	4G\	ue-	.	.	.	.
8E\L	.	8c\	-re	.	.	8ee\	-re
8F\J	.	8F\	est	.	.	8ee\	est
=33	=33	=33	=33	=33	=33	=33	=33
4G\	4	2G\	po-	2r	.	2dd\	po-
4GG/	#3	.	.	.	.	.	.
[2C/	.	4C/	-tuſ	4gg\	Ca-	4cc\	-tuſ
.	.	4r	.	4cc\	-ro	4r	.
!	!	!	!	!	!	!LO:LB:g=original	!
=34	=34	=34	=34	=34	=34	=34	=34
!LO:TX:a:t=C 2.o	!	!LO:TX:b:t=2	!	!	!	!	!
4C/]	.	0r	.	8ff\L	me-	2r	.
.	.	.	.	16gg\L	.	.	.
.	.	.	.	16aa\JJ	.	.	.
4BB#X/	.	.	.	16gg\LL	.	.	.
.	.	.	.	16aa\	.	.	.
.	.	.	.	16dd\	.	.	.
.	.	.	.	16ff\JJ	.	.	.
!LO:LB:g=original	!	!	!	!	!	!	!
!LO:TX:a:t=c. P.	!	!	!	!	!	!	!
[>2C/	.	.	.	4ee\	-a	4gg\	Ca-
.	.	.	.	4r	.	4cc\	-ro
=35	=35	=35	=35	=35	=35	=35	=35
4C/]	.	.	.	2r	.	8ff\L	me-
.	.	.	.	.	.	16gg\L	.
.	.	.	.	.	.	16aa\JJ	.
4BB#X/	.	.	.	.	.	16gg\LL	.
.	.	.	.	.	.	16aa\	.
.	.	.	.	.	.	16dd\	.
.	.	.	.	.	.	16ff\JJ	.
4C/	.	.	.	4r	.	4ee\	-a
*	*below	*	*	*	*	*	*
4B-\	6	.	.	8b-\	ue-	8g/	ue-
.	.	.	.	8g\	-re	8g/	-re
!	!	!LO:LB:g=original	!	!LO:LB:g=original	!	!	!
=36	=36	=36	=36	=36	=36	=36	=36
4A\	7	2r	.	8a\L	ue-	(8cc\L	ue-
*	*above	*	*	*	*	*	*
.	.	.	.	8g\J	.	8b-\J)	.
4D/	.	.	.	8f#X/	-re	8a\	-re
.	.	.	.	8a\	est	8dd\	est
4G\	.	8r	.	8g\	ci-	8b-\	ci-
.	.	8D/	et	8g\	-buſ	8b-\	-buſ
8r	.	8G\	San-	4r	.	4r	.
8G\	.	8F\	-guiſ	.	.	.	.
!	!	!	!	!	!	!LO:LB:g=original	!
=37	=37	=37	=37	=37	=37	=37	=37
4C/	.	8E\L	me-	8r	.	2r	.
.	.	16F\L	.	8g/	et	.	.
.	.	16G\JJ	.	.	.	.	.
8r	.	8C/L	.	8cc\	San-	.	.
8C/	.	16D/L	.	8b-\	-guiſ	.	.
.	.	16E/JJ	.	.	.	.	.
4F\	.	8F\	.	8a\L	me-	8r	.
.	.	8F\	-uſ	16b-\L	.	8cc\	et
.	.	.	.	16cc\JJ	.	.	.
8r	.	4r	.	8f\L	.	8ff\	San-
8F\	.	.	.	16g\L	.	8ee-X\	-guiſ
.	.	.	.	16a\JJ	.	.	.
=38	=38	=38	=38	=38	=38	=38	=38
4BB-/	.	4r	.	8b-\	.	8dd\L	me-
.	.	.	.	8b-\	-uſ	16ee\L	.
.	.	.	.	.	.	16ff\JJ	.
8B-\L	.	8B-\	ue-	8f/	ue-	8b-\L	.
8A\J	.	8A\	-re	8f/	-re	16cc\L	.
.	.	.	.	.	.	16dd\JJ	.
!LO:PB:g=original	!	!	!	!LO:LB:g=original	!	!	!
4G\	-6	4G\	ue-	4g\	ue-	8ee-X\	.
.	.	.	.	.	.	8ee-\	-uſ
8r	.	4G\	-re	4g\	-re	8ee-\	ue-
8G\	.	.	.	.	.	8dd\	-re
!	!	!LO:PB:g=original	!	!	!	!	!
=39	=39	=39	=39	=39	=39	=39	=39
4A-X\	.	4A-X\	ue-	2r	.	4cc\	ve-
4F\	.	8F\	-re	.	.	8ff\	-re
.	.	8F\	est	.	.	8ee-X\	est
4G\	4	2G\	po-	8r	.	2dd\	po-
.	.	.	.	8dd\	et	.	.
4GG/	3	.	.	8gg\	San-	.	.
.	.	.	.	8ff\	-guiſ	.	.
!	!	!	!	!	!	!LO:PB:g=original	!
=40	=40	=40	=40	=40	=40	=40	=40
4C/	.	4C/	-tuſ	8ee\L	me-	8cc\	-tuſ
.	.	.	.	16ff\L	.	8g/	et
.	.	.	.	16gg\JJ	.	.	.
8r	.	4r	.	8cc\L	.	8cc\	San-
8C/	#3	.	.	16dd\L	.	8b-\	-guiſ
.	.	.	.	16ee\JJ	.	.	.
4FF/	.	8r	.	8ff\	.	8a\L	me-
.	.	8C/	et	8ff\	-uſ	16b-\L	.
.	.	.	.	.	.	16cc\JJ	.
8r	.	8F\	San-	4r	.	8f\L	.
8F\	.	8E-X\	-guiſ	.	.	16g\L	.
.	.	.	.	.	.	16a\JJ	.
=41	=41	=41	=41	=41	=41	=41	=41
4D\	6	8D\L	me-	8r	.	8b-\	.
.	.	16E-X\L	.	8f/	et	8b-\	-uſ
.	.	16F\JJ	.	.	.	.	.
8r	.	8BB-/L	.	8b-\	San-	8f/	ue-
8BB-/	.	16C/L	.	8a\	-guiſ	8f/	-re
.	.	16D/JJ	.	.	.	.	.
!	!	!	!	!LO:PB:g=original	!	!	!
4E-X\	.	8E-\	.	8g\L	me-	8g/	ue-
.	.	8E-\	-uſ	16a\L	.	8g/	-re
.	.	.	.	16b-\JJ	.	.	.
4C/	.	8C/	ue-	8e-X/L	.	[4cc\	ue-
.	.	8C/	-re	16f/L	.	.	.
.	.	.	.	16g/JJ	.	.	.
!	!	!LO:LB:g=original	!	!	!	!LO:LB:g=original	!
=42	=42	=42	=42	=42	=42	=42	=42
4D\	7 #	4D\	ue-	8f#X/	.	4cc\]	.
.	.	.	.	8f#/	-us	.	.
8G\L	.	8G\	-re	4r	.	8b-\	-re
8C\J	.	8C/	est	.	.	8b-\	est
4D/	4	2D\	po-	8r	.	2a\	po-
.	.	.	.	8a\	et	.	.
4DD/	3	.	.	8dd\	San-	.	.
.	.	.	.	8cc\	-guiſ	.	.
!LO:LB:g=original	!	!	!	!	!	!	!
=43	=43	=43	=43	=43	=43	=43	=43
4GG/	#	4G\	-tuſ	8bn\L	me-	8g\	-tuſ
.	.	.	.	16cc\L	.	8dd\	et
.	.	.	.	16dd\JJ	.	.	.
8r	.	4r	.	8g\L	.	8gg\	San-
8G\	.	.	.	16a\L	.	8ff\	-guiſ
.	.	.	.	16b\JJ	.	.	.
4C/	.	8r	.	8cc\	.	8ee\L	me-
.	.	8G\	et	8cc\	-uſ	16ff\L	.
.	.	.	.	.	.	16gg\JJ	.
8r	.	8c\	San-	8g/	ue-	8cc\L	.
8C/	.	8B-\	-guiſ	8g/	-re	16dd\L	.
.	.	.	.	.	.	16ee\JJ	.
!	!	!	!	!LO:LB:g=original	!	!	!
=44	=44	=44	=44	=44	=44	=44	=44
4F\	.	8A\L	me-	8a\	ue-	8ff\	.
.	.	16B-\L	.	8a\	-re	8ff\	-uſ
.	.	16c\JJ	.	.	.	.	.
8r	.	8F\L	.	4r	.	8ff\	ue-
8F\	.	16G\L	.	.	.	8ee-X\	-re
.	.	16A\JJ	.	.	.	.	.
!	!	!	!	!	!	!LO:LB:g=original	!
4B-\	.	8B-\	.	4r	.	8dd\	ue-
.	.	8B-\	-uſ	.	.	8dd\	-re
8r	.	8B-\	ue-	[4b-\	ue-	8dd\	ue-
8B-\	.	8B-\	-re	.	.	8dd\	-re
!	!	!LO:LB:g=original	!	!	!	!	!
=45	=45	=45	=45	=45	=45	=45	=45
4c\	.	4c\	ue-	4b-\]	.	4een\	ue-
!LO:TX:t=P:problem:mixed beam	!	!	!	!	!	!	!
8F\L	.	8F\	-re	8a\	-re	16ff\LL	-re
.	.	.	.	.	.	16ee\JJ	.
8BB-/J	.	8BB-/	est	8a\	est	16ff\LL	est
.	.	.	.	.	.	16gg\JJ	.
2C/	4	2C/	po-	2g/	po-	(<4ff\	po-
.	3	.	.	.	.	4ee\)	.
=46	=46	=46	=46	=46	=46	=46	=46
1F	.	1F	-tuſ	1a	-tus	1ff	-tuſ
==	==	==	==	==	==	==	==
*-	*-	*-	*-	*-	*-	*-	*-
!!!system-decoration: [(s1,s2,s3)]s4
!!!RDF**kern: > = above
!!!RDF**kern: < = below
!!!ENC: Marta Lawrence
!!!END: 2021-02-17
!!!ENC: Mateusz Solarz
!!!END: 2021-02-12
